packages/icons/svg/Outline/home.svg

<svg fill="none" height="24" viewBox="0 0 24 24" width="24" xmlns="http://www.w3.org/2000/svg"><path clip-rule="evenodd" d="m18.9903 20h-2.99v-7c0-.553-.448-1-1-1h-6.00004c-.553 0-1 .447-1 1v7h-3l.006-8.417 6.99204-7.15104 7.002 7.19204zm-8.9901.0001h4v-6h-4zm10.424-9.8151-7.709-7.88404c-.377-.385-1.053-.385-1.43 0l-7.70996 7.88504c-.365.375-.575.899-.575 1.438v8.376c0 1.103.847 2 1.888 2h4.112 5.99996 4.111c1.041 0 1.889-.897 1.889-2v-8.376c0-.539-.21-1.063-.576-1.439z" fill="#6b7280" fill-rule="evenodd"/></svg>

<svg width="24" height="24" viewBox="0 0 24 24" fill="none" xmlns="http://www.w3.org/2000/svg">
<g id="Icon/Outline/home">
<path id="Mask" fill-rule="evenodd" clip-rule="evenodd" d="M18.9902 20H16.0002V13C16.0002 12.447 15.5522 12 15.0002 12H9.00024C8.44724 12 8.00024 12.447 8.00024 13V20H5.00024L5.00624 11.583L11.9982 4.43199L19.0002 11.624L18.9902 20ZM10.0002 20H14.0002V14H10.0002V20ZM20.4242 10.185L12.7152 2.30099C12.3382 1.91599 11.6622 1.91599 11.2852 2.30099L3.57524 10.186C3.21024 10.561 3.00024 11.085 3.00024 11.624V20C3.00024 21.103 3.84724 22 4.88824 22H9.00024H15.0002H19.1112C20.1522 22 21.0002 21.103 21.0002 20V11.624C21.0002 11.085 20.7902 10.561 20.4242 10.185Z" fill="#000000"/>
</g>
</svg>
